X: 12
T: Hag With The Money, The
Z: birlibirdie
S: https://thesession.org/tunes/351#setting50858
R: jig
M: 6/8
L: 1/8
K: Dmix
Add (A2A) | AGE (G2G) | Add (A2A) | GEE EDD |
Add A2A | AGE c2c | ddd ccA | AGE EDA ||
AB^c d2d | ded d2c | ABc d2d | ded cAG |
AB^c d2d | ded d2c | AGA c2A | AGE EDD ||

%-------------------- TUNE SEPARATOR --------------------%

